www/assets/icons/video_chat.svg

<svg xmlns="http://www.w3.org/2000/svg" width="24" height="24" viewBox="0 0 24 24" fill='currentColor'><path d="M20 2H4c-1.1 0-1.99.9-1.99 2L2 22l4-4h14c1.1 0 2-.9 2-2V4c0-1.1-.9-2-2-2m-3 11-2-1.99V13c0 .55-.45 1-1 1H8c-.55 0-1-.45-1-1V7c0-.55.45-1 1-1h6c.55 0 1 .45 1 1v1.99L17 7z"/></svg>

<svg width="24" height="24" viewBox="0 0 24 24" xmlns="http://www.w3.org/2000/svg" fill='currentColor'><path d="M20 2H4C2.9 2 2.01 2.9 2.01 4L2 22L6 18H20C21.1 18 22 17.1 22 16V4C22 2.9 21.1 2 20 2ZM17 13L15 11.01V13C15 13.55 14.55 14 14 14H8C7.45 14 7 13.55 7 13V7C7 6.45 7.45 6 8 6H14C14.55 6 15 6.45 15 7V8.99L17 7V13Z"/></svg>
